X:1
T:Like Gentle Dew
T:Like Gentle Dew
T:Robert Lowry
T:Frances Jane (Fanny) Crosby, 1871
T:Public Domain Courtesy of the Cyber Hymnal™
T:Public Domain Courtesy of the Cyber Hymnal™
C:Robert Lowry
Z:Public Domain
Z:Courtesy of the Cyber Hymnal™
%%score ( 1 2 ) ( 3 4 )
L:1/8
Q:1/4=107
M:4/4
K:G
V:1 treble 
V:2 treble 
V:3 bass 
V:4 bass 
V:1
 [DG]2 | [GB]3 [DA] [DG]2 [DG]2 | [EG]3 [DF] [CE]2 [CE]2 | D2 [DG]2 (GF) ([DG][FA]) | %4
w: 1.~Like|gen- tle dew the|bless- ings fall From|God whose love * in- *|
w: 2.~On|Je- sus all our|sins were laid; He|free- ly shed * His *|
w: 3.~To|save from death our|guil- ty race, He|bore the cross, * en- *|
 [GB]2 [GB]2 !fermata![FA]2 G2 | [GB]3 [Gc] [GB]2 [FA]2 | [EG]3 [DF] [CE]2 [EG]2 | %7
w: spires our song; Our|time, our tal- ents|and our all, From|
w: pre- cious blood, And|thus our ad- vo-|cate was made, That|
w: dured the pain; O|won- drous rich- es|of His grace! In|
 (AG) ([DF][CE]) D2 [DG]2 | [GB]3 [FA] G4 ||"^Refrain" [GB]2 [GB]>[GB] [GB][DA][DG][GB] | %10
w: Him * re- * ceived, to|Him be- long.|Then let us of- fer to His|
w: He * might * bring us|near to God.||
w: Him * we * die to|live a- gain.||
 ([Fd]4 [Ac]2) [FA]2 | [GB]2 [GB]2 [GB][Bd][Ac][GB] | (A4 d2) [Ac]2 | %13
w: name * The|will- ing sac- ri- fice of|praise; * And|
w: |||
w: |||
 [GB]2 [GB]2 [DB][CA][B,G][DF] | ([CE]4 [Ec]2) c2 | [DB][Gd][Gc][EA] [DG]2 [DF]2 | [DG]6 |] %17
w: may our grate- ful lips pro-|claim * His|good- ness in the notes we|raise!|
w: ||||
w: ||||
V:2
 x2 | x8 | x8 | D2 D2 x4 | x6 G2 | x8 | x8 | E2 x D2 x3 | x4 G4 || x8 | x8 | x8 | F6 x2 | x8 | %14
 x6 (ED) | x8 | x6 |] %17
V:3
 [G,B,]2 | [G,D]3 [G,C] [G,B,]2 [G,B,]2 | [C,C]3 [C,G,] [C,G,]2 [C,G,]2 | %3
w: ~|~ ~ ~ ~|~ ~ ~ ~|
 [B,,G,]2 [G,,B,]2 (B,A,) D2 | [G,D]2 [G,D]2 !fermata![D,D]2 [G,B,]2 | [G,D]3 [G,E] [G,D]2 [D,C]2 | %6
w: ~ ~ ~ * ~|~ ~ ~ ~|~ ~ ~ ~|
 [E,B,]3 [B,,G,] [C,G,]2 [C,G,]2 | [C,G,]2 [C,G,]2 [B,,G,]2 [G,,B,]2 | [D,D]3 [D,C] [G,,B,]4 || %9
w: ~ ~ ~ ~|~ ~ ~ ~|~ ~ ~|
 [G,D]2 [G,D]>[G,D] (DC) (B,D) | [D,C]2 [D,C]2 [D,C]2 [D,C]2 | [G,D]2 [G,D]2 [G,D]2 D2 | %12
w: ~ ~ ~ of- * fer *|to His name ~|~ ~ sac- ri-|
 [D,D]2 [D,D]2 [D,D]2 [F,D]2 | [G,D]2 [G,D]2 G,2 G,2 | [C,G,]2 [C,G,]2 G,2 ([E,G,][F,A,]) | %15
w: fice of praise; And|may our grate- ful|lips pro- claim His *|
 (G,B,) (EC) [D,B,][D,B,][D,A,][D,C] | [G,,B,]6 |] %17
w: good- * ness * in the notes we|raise!|
V:4
 x2 | x8 | x8 | x4 G,,2 (B,,D,) | x8 | x8 | x8 | x8 | x8 || x4 G,2 G,2 | x8 | x6 (F,G,) | x8 | %13
 x4 G,2 G,2 | x4 (C,D,) x2 | G,2 C,2 x4 | x6 |] %17

